X:1
T:Lincoln
T:Isaac Watts, 1709 Hymn 150, Book 1                        66. 66. 88. 
T:Transcribed from Columbian Harmony, 1793.
T:F Major                       Abraham Wood, 1793 
%%score [ 1 2 3 4 ]
L:1/8
Q:1/4=130
M:4/4
K:F
V:1 treble nm="Tr." snm="Tr."
V:2 treble nm="C." snm="C."
V:3 treble-8 nm="T." snm="T."
V:4 bass nm="B." snm="B."
V:1
"^\n""_1. Join all the  glo      –      rious  names   Of    wis        –       dom,   love, and power,      That  ever mortals knew,  That an    –    gels  ev – er   bore:  All  are  too  mean to\n2. Arrayed in  mor     –        tal     flesh,    He    like                 an        an – gel  stands,      And holds  the promises   And par   –   dons  in his hands; Commission'd from his\n" A4 c2 c2 | %1
 (c4 B2) A2 | B6 c2 | (F3 G A2) A2 | B4 c4 | c8 | z4 A4 | G2 G2 B2 B2 | A6 A2 | (A4 B2) c2 | %10
 d4 c4 | c8 | c4 c2 B2 | A6 A2 | %14
"_1. speak            his      worth,     Too  mean  to      set        my        Sa  – vior     forth.\n2. Fa       –       ther's   throne     To    make  his    grace     to         mor – tals   known.\n" (G3 A B2) c2 | %15
 c8 | f4 f2 e2 | d6 f2 | c4 c4 | c8 |] %20
V:2
"_3. Great Prophet of                my    God,   My   tongue          would  bless  thy name;        By  thee  the  joyful news  Of  our          sal–va–tion came:  The  joyful  news  of\n4.   Be  thou my  Coun     –    se   –   lor,     My  Pat        –        tern,   and  my  Guide;  And through this desert land  Still keep      me  near  thy side:  O  let  my  feet  ne'er\n" C4 F2 F2 | %1
 (A4 G2) F2 | G6 A2 | (F3 G F2) CD | E4 F4 | E8 | z4 F4 | E2 E2 F2 F2 | F6 A2 | (A4 G2) F2 | %10
 G4 G4 | A8 | A4 G2 F2 | F6 F2 | %14
"_3. sins                   for – given,      Of     hell  sub – dued,     and      peace  with  heaven.\n4. run                   a   –   stray,       Nor   rove, nor   seek       the       croo – ked   way.\n" (D4 E2) F2 | %15
 G8 | A4 A2 AG | F6 F2 | F4 G4 | A8 |] %20
V:3
"_5. My dear Al – migh    –     ty     Lord,  My  Con       –       queror   and  my  King!     Thy scepter and thy sword,  Thy reign  –  ing  grace I sing:  Thine is the power; be–hold, I sit  In willing bonds before thy feet.]\n6. Should all the hosts          of    death,  And powers             of        hell  unknown,  Put their most dreadful forms  Of rage       and mischief on,   I   shall   be   safe,   for Christ displays  Superior power, and guardian grace.\n" F4 A2 c2 | %1
 (f3 e d2) ^c2 | d6 f2 | (c3 d c2) A2 | B4 A4 | G8 | z4 A4 | c2 c2 d2 d2 | c6 c2 | (f3 e d2) c2 | %10
 d4 e4 | f8 | f4 e2 d2 | c6 A2 | %14
"_5. – hold,               I        sit            In      wil –  ling   bonds   be    –   fore   thy     feet.\n6.  Christ              dis –  plays       Su  –  pe   –  rior   power,  and      guardian    grace.\n" (d3 c B2) A2 | %15
 G8 | F4 A2 c2 | f6 cB | A4 G4 | F8 |] %20
V:4
 F,4 F,2 F,2 | (F,4 G,2) A,2 | G,6 F,2 | (A,3 G, F,2) F,2 | G,4 F,4 | C,8 | z4 F,4 | %7
 C,2 C,2 B,,2 B,,2 | F,6 F,2 | (F,4 G,2) A,2 | B,4 C4 | F,8 | F,4 C,2 D,E, | F,6 F,2 | %14
"________________________________________\nEdited by B. C. Johnston, 2019\n  Measure of rest after measure 12 eliminated.\n" (B,3 A, G,2) F,2 | %15
 C,8 | F,4 F,2 A,2 | B,6 A,B, | C4 C,4 | F,8 |] %20

